!!!OTL: Lasst die Politiker nur sprechen et.
!!!OTL-incipit: LASST DIE POLITIKER NUR SPRECHEN
!!!COM: Volksweise
!!!ARE: Europa, Mitteleuropa, Deutschland
!!!SCT: F0732
!!!TXL: @@DE
!!!YEM: Copyright 1995, estate of Helmut Schaffrath.
**kern	**text
*ICvox	*
*clefG2	*
*M3/4	*
*k[]	*
*C:	*
=1	=1
!LO:TX:a:t=Maessig.	!
!LO:TX:a:t=P:only the highest voice encoded:problem	!
{4cc	1._Laßt
4cc	die
4cc	Po-
=2	=2
(>4cc/	-li-
4b/)	.
4cc/	-ti-
=3	=3
(>4a	-ker
4cc/)	.
4a	nur
=4	=4
4a	ſpre-
4g	-chen;
4r}	.
=5	=5
{4cc/	auf,
4cc/	Freunde,
4cc/	.
=6	=6
(>4cc/	trinkt
4b/)	.
4cc/	und
=7	=7
(>4g	ſeid
4ff/)	.
4ee/	ver-
=8	=8
(>4ee/	-gnügt!
4dd/)	.
4r}	.
=9	=9
{4cc	laßt
4cc	ſie
4cc	die
=10	=10
(>4cc/	Kö-
4b/)	.
4cc/	-pfe
=11	=11
(>4a	ſich
4cc/)	.
4a	ʒer-
=12	=12
4a	-bre-
4g	-chen,
4r}	.
=13	=13
{4cc/	ob
4cc/	Frankreich
4cc/	.
=14	=14
(>4cc/	o-
4b/)	.
4cc/	-der
=15	=15
(>4g	Eng-
4ff/)	.
4ee/	-land
=16	=16
(>4ee/	ſiegt.
4dd/)	.
4r}	.
=17	=17
{4dd	Uns
4dd	ka-
4dd	-pert
=18	=18
(>4.dd/	man
8cc/)	.
4b/	kein
=19	=19
(>4cc/	Schiff,
4a)	.
4f#	kein
=20	=20
2g	Boot;
4r}	.
=21	=21
{4ee	was
4ee	hat
4ee	es
=22	=22
(>4.gg	denn
8ff)	.
4ee	mit
=23	=23
(>4dd/	uns
4cc/)	.
4b/	für
=24	=24
2cc/	Noth!
4r}	.
=25	=25
{4dd	Uns
4dd	ka-
4dd	-pert
=26	=26
(>4.dd/	man
8cc/)	.
4b/	kein
=27	=27
(>4cc/	Schiff,
4a)	.
4f#	kein
=28	=28
2g	Boot;
4r}	.
=29	=29
{4ee	was
4ee	hat
4ee	es
=30	=30
(>4.gg	denn
8ff)	.
4ee	mit
=31	=31
(>4dd/	uns
4cc/)	.
4b/	für
=32	=32
2cc/	Noth!
4r}	.
==	==
!!!AGN: Geselligkeits -, Trink - Lied
!!!ONB: ESAC (Essen Associative Code) Database: FINK
!!!AMT: simple triple
!!!AIN: vox
!!!EED: Helmut Schaffrath
!!!EEV: 1.0
!!!RDF**kern: > = above
!!!GTL: Liedertafel- und Gesellschaftslieder
!!Text: Volkslied
!!!source: Musikalischer Hausschatz der Deutschen. Eine Sammlung von über 1000 Liedern und Gesängen mit Singstimmen und Klavierbegleitung. Leipzig, Litterarisches Verlags-Haus.
!!!page: 501
!!!URL-scan: https://www.digitale-sammlungen.de/en/view/bsb11144622?page=452
!!!ENC: Anna Maria Matuszewska
!!!EEV: 2024/08/05
*-	*-
